svg/building/TV_towe_fill.svg

<?xml version="1.0" encoding="UTF-8"?>
<svg width="24px" height="24px" viewBox="0 0 24 24" version="1.1" xmlns="http://www.w3.org/2000/svg" xmlns:xlink="http://www.w3.org/1999/xlink">
    <title>tower_2_fill</title>
    <g id="页面-1" stroke="none" stroke-width="1" fill="none" fill-rule="evenodd">
        <g id="Building" transform="translate(-192.000000, -136.000000)">
            <g id="tower_2_fill" transform="translate(192.000000, 136.000000)">
                 <path d="M24,0 L24,24 L0,24 L0,0 L24,0 Z M12.5934901,23.257841 L12.5819402,23.2595131 L12.5108777,23.2950439 L12.4918791,23.2987469 L12.4918791,23.2987469 L12.4767152,23.2950439 L12.4056548,23.2595131 C12.3958229,23.2563662 12.3870493,23.2590235 12.3821421,23.2649074 L12.3780323,23.275831 L12.360941,23.7031097 L12.3658947,23.7234994 L12.3769048,23.7357139 L12.4804777,23.8096931 L12.4953491,23.8136134 L12.4953491,23.8136134 L12.5071152,23.8096931 L12.6106902,23.7357139 L12.6232938,23.7196733 L12.6232938,23.7196733 L12.6266527,23.7031097 L12.609561,23.275831 C12.6075724,23.2657013 12.6010112,23.2592993 12.5934901,23.257841 L12.5934901,23.257841 Z M12.8583906,23.1452862 L12.8445485,23.1473072 L12.6598443,23.2396597 L12.6498822,23.2499052 L12.6498822,23.2499052 L12.6471943,23.2611114 L12.6650943,23.6906389 L12.6699349,23.7034178 L12.6699349,23.7034178 L12.678386,23.7104931 L12.8793402,23.8032389 C12.8914285,23.8068999 12.9022333,23.8029875 12.9078286,23.7952264 L12.9118235,23.7811639 L12.8776777,23.1665331 C12.8752882,23.1545897 12.8674102,23.1470016 12.8583906,23.1452862 L12.8583906,23.1452862 Z M12.1430473,23.1473072 C12.1332178,23.1423925 12.1221763,23.1452606 12.1156365,23.1525954 L12.1099173,23.1665331 L12.0757714,23.7811639 C12.0751323,23.7926639 12.0828099,23.8018602 12.0926481,23.8045676 L12.108256,23.8032389 L12.3092106,23.7104931 L12.3186497,23.7024347 L12.3186497,23.7024347 L12.3225043,23.6906389 L12.340401,23.2611114 L12.337245,23.2485176 L12.337245,23.2485176 L12.3277531,23.2396597 L12.1430473,23.1473072 Z" id="MingCute" fill-rule="nonzero"></path>
                <path d="M12.0001,1 C12.5524,1 13.0001,1.44772 13.0001,2 L13.0001,4.17071 C14.1653,4.58254 15.0001,5.69378 15.0001,7 C15.0001,7.84679 14.6493,8.61164 14.085,9.15712 L14.8702,11.9053 C16.1582,12.8098 17.0001,14.3066 17.0001,16 C17.0001,17.0614 16.6694,18.0456 16.1053,18.8551 L17.8322,21.4453 C18.1385,21.9048 18.0143,22.5257 17.5548,22.8321 C17.0953,23.1384 16.4744,23.0142 16.1681,22.5547 L14.6327,20.2516 C14.1392,20.5579 13.5884,20.7806 13.0001,20.9 L13.0001,22 C13.0001,22.5523 12.5524,23.0001099 12.0001,23.0001099 C11.4478,23.0001099 11.0001,22.5523 11.0001,22 L11.0001,20.9 C10.4118,20.7806 9.86105,20.5579 9.36753,20.2516 L7.83216,22.5547 C7.5258,23.0142 6.90493,23.1384 6.44541,22.8321 C5.98588,22.5257 5.8617,21.9048 6.16806,21.4453 L7.89487,18.8551 C7.33084,18.0456 7.00011,17.0614 7.00011,16 C7.00011,14.3066 7.84197,12.8098 9.13001,11.9053 L9.9152,9.15712 C9.35095,8.61164 9.00011,7.84679 9.00011,7 C9.00011,5.69378 9.83491,4.58254 11.0001,4.17071 L11.0001,2 C11.0001,1.44772 11.4478,1 12.0001,1 Z M11.7572,9.99031 L11.4605,11.0288 C11.815,10.9907 12.1852,10.9907 12.5397,11.0288 L12.243,9.99031 C12.0828,10.0031 11.9174,10.0031 11.7572,9.99031 Z M14.5963,14.4957 C13.8834,14.7459 12.9164,15 12.0001,15 C11.0838,15 10.1169,14.7459 9.40391,14.4957 C9.05763,15.0921 8.92872,15.8032 9.03881,16.4831 C9.82977,16.7393 10.8984,17 12.0001,17 C13.1018,17 14.1704,16.7393 14.9614,16.4831 C15.0715,15.8032 14.9426,15.0921 14.5963,14.4957 Z" id="形状" fill="#09244B"></path>
            </g>
        </g>
    </g>
</svg>

<svg xmlns="http://www.w3.org/2000/svg" width="24" height="24"><g fill="none" fill-rule="evenodd"><path d="M24 0v24H0V0h24ZM12.593 23.258l-.011.002-.071.035-.02.004-.014-.004-.071-.035c-.01-.004-.019-.001-.024.005l-.004.01-.017.428.005.02.01.013.104.074.015.004.012-.004.104-.074.012-.016.004-.017-.017-.427c-.002-.01-.009-.017-.017-.018Zm.265-.113-.013.002-.185.093-.01.01-.003.011.018.43.005.012.008.007.201.093c.012.004.023 0 .029-.008l.004-.014-.034-.614c-.003-.012-.01-.02-.02-.022Zm-.715.002a.023.023 0 0 0-.027.006l-.006.014-.034.614c0 .012.007.02.017.024l.015-.002.201-.093.01-.008.004-.011.017-.43-.003-.012-.01-.01-.184-.092Z"/><path fill="#09244B" d="M12 1a1 1 0 0 1 1 1v2.17a3.001 3.001 0 0 1 1.085 4.987l.785 2.748A4.994 4.994 0 0 1 17 16c0 1.061-.33 2.046-.895 2.855l1.727 2.59a1 1 0 0 1-1.664 1.11l-1.535-2.303A4.968 4.968 0 0 1 13 20.9V22a1 1 0 1 1-2 0v-1.1a4.968 4.968 0 0 1-1.632-.648l-1.536 2.303a1 1 0 0 1-1.664-1.11l1.727-2.59A4.977 4.977 0 0 1 7 16c0-1.693.842-3.19 2.13-4.095l.785-2.748A3.001 3.001 0 0 1 11 4.171V2a1 1 0 0 1 1-1Zm-.243 8.99-.296 1.039a5.11 5.11 0 0 1 1.079 0l-.297-1.039a3.08 3.08 0 0 1-.486 0Zm2.84 4.506c-.714.25-1.68.504-2.597.504-.916 0-1.883-.254-2.596-.504a3.02 3.02 0 0 0-.365 1.987c.79.256 1.86.517 2.961.517 1.102 0 2.17-.26 2.961-.517a3.02 3.02 0 0 0-.365-1.987Z"/></g></svg>
